icons/System/shield-check-fill.svg

<svg viewBox="0 0 24 24" xmlns="http://www.w3.org/2000/svg"><path d="M12 1L20.2169 2.82598C20.6745 2.92766 21 3.33347 21 3.80217V13.7889C21 15.795 19.9974 17.6684 18.3282 18.7812L12 23L5.6718 18.7812C4.00261 17.6684 3 15.795 3 13.7889V3.80217C3 3.33347 3.32553 2.92766 3.78307 2.82598L12 1ZM16.4524 8.22183L11.5019 13.1709L8.67421 10.3431L7.25999 11.7574L11.5026 16L17.8666 9.63604L16.4524 8.22183Z"/></svg>

<svg xmlns="http://www.w3.org/2000/svg" viewBox="0 0 24 24">
    <g>
        <path fill="none" d="M0 0H24V24H0z"/>
        <path d="M12 1l8.217 1.826c.457.102.783.507.783.976v9.987c0 2.006-1.003 3.88-2.672 4.992L12 23l-6.328-4.219C4.002 17.668 3 15.795 3 13.79V3.802c0-.469.326-.874.783-.976L12 1zm4.452 7.222l-4.95 4.949-2.828-2.828-1.414 1.414L11.503 16l6.364-6.364-1.415-1.414z"/>
    </g>
</svg>
